X:218
T:Miss Grace Hay's Delight
B:The Gow Collection (New York 1986)
Z:Nigel Gatherer
R:Jig
M:6/8
L:1/8
K:G
G2 c B2 c|dBd efg|G2 c B2 c|dBG AFD|E2 C CEG|
F2 D D2 c|B/c/dB cAF|G3 G3:|d2 g f2 g|afd e^cA|fga B^cd|
efd ^cBA|afa geg|fdf e^cA|Bgf ed^c|d2 d d=cB|c2 c cac|
B2 B BgB|ABA ABc|dBG AFD|E2C CAG|F2 D D2 c|B/c/dB cAF|G3 G3|]
<end>
<start>
